third_party/noto/noto_2/emoji_u26f4.svg

<svg enable-background="new 0 0 128 128" version="1.1" viewBox="0 0 128 128" xmlns="http://www.w3.org/2000/svg"><polygon points="61.92 30.93 83.19 34.7 83.58 22.99 62.37 18.44" fill="#94D1E0"/><path d="m112.16 50.26 0.3-12.16-55.59-9.66-2.47 55.12 64.47 5.64 1.27-37.88-7.98-1.06z" fill="#2F7889"/><path d="m112.16 49.71 0.3-12.16-55.59-9.66-1.67 45.04 64.03 6.03 0.91-28.17-7.98-1.08zm-49.04 19.16-4.48-0.45 0.34-6.73 4.47 0.53-0.33 6.65zm0.62-12.67-4.46-0.53 0.38-7.45 4.45 0.64-0.37 7.34zm0.66-13.37-4.44-0.64 0.38-7.57 4.42 0.78-0.36 7.43zm6.17 26.78-4.46-0.44 0.32-6.59 4.43 0.52-0.29 6.51zm0.58-12.54-4.41-0.52 0.36-7.26 4.38 0.63-0.33 7.15zm0.6-13.18-4.36-0.63 0.36-7.35 4.33 0.76-0.33 7.22zm6.27 26.47-4.45-0.44 0.3-6.46 4.43 0.52-0.28 6.38zm0.53-12.41-4.41-0.52 0.32-7.07 4.38 0.63-0.29 6.96zm0.55-13-4.36-0.63 0.33-7.12 4.33 0.76-0.3 6.99zm6.38 26.15-4.45-0.44 0.27-6.33 4.43 0.52-0.25 6.25zm0.48-12.28-4.41-0.52 0.29-6.88 4.38 0.63-0.26 6.77zm0.5-12.81-4.36-0.63 0.29-6.9 4.33 0.76-0.26 6.77zm6.49 25.84-4.47-0.45 0.24-6.19 4.45 0.53-0.22 6.11zm0.44-12.15-4.44-0.52 0.26-6.69 4.42 0.64-0.24 6.57zm0.47-12.62-4.41-0.64 0.26-6.68 4.39 0.77-0.24 6.55zm6.54 25.51-4.45-0.44 0.22-6.06 4.43 0.52-0.2 5.98zm0.4-12.01-4.41-0.52 0.24-6.5 4.38 0.63-0.21 6.39zm0.41-12.44-4.36-0.63 0.24-6.45 4.33 0.76-0.21 6.32zm6.64 25.19-4.45-0.44 0.2-5.92 4.43 0.52-0.18 5.84zm0.35-11.88-4.41-0.52 0.21-6.31 4.38 0.63-0.18 6.2zm0.37-12.25-4.36-0.63 0.21-6.23 4.34 0.76-0.19 6.1zm6.73 24.88-4.45-0.44 0.17-5.79 4.43 0.52-0.15 5.71zm0.31-11.75-4.41-0.52 0.18-6.12 4.38 0.63-0.15 6.01z" fill="#94D1E0"/><polygon points="62.37 18.44 47.69 19.35 47.7 28.22 39.3 28.3 38.26 42.6 32.88 42.64 17.65 82.82 54.66 83.98 57.49 28 62.25 28.77" fill="#DFECF5"/><polygon points="30.94 57.34 52.4 57.65 52.4 47.36 34.81 47.36" fill="#82AEC0"/><polygon points="22.82 81.37 52.4 83.02 49.51 61.14 31.7 60.97" fill="#82AEC0"/><polygon points="49.51 61.14 31.77 60.81 29.54 65.94 41.92 82.44 52.4 83.02" fill="#2F7889"/><polygon points="34.81 47.36 52.4 53.45 52.4 47.36" fill="#2F7889"/><path d="m53.72 77.55c6.66 0.54 14.65 1.23 20.43 1.8l47.08 4.14c0.84 0.08 1.47 0.83 1.4 1.67l-0.3 3.71" fill="none" stroke="#82AEC0" stroke-miterlimit="10" stroke-width="2"/><path d="m8.23 80.85v-4.57c0-0.8 0.68-1.44 1.48-1.38 0 0 24.24 0.77 45.47 2.77" fill="none" stroke="#94D1E0" stroke-linecap="round" stroke-miterlimit="10" stroke-width="2"/><g fill="#82AEC0"><polygon points="46.38 33.99 42.3 34.11 41.72 41.68 45.83 41.6"/><polygon points="48.98 33.92 48.43 41.64 52.91 41.55 53.4 33.79"/></g><path d="m84.06 24.31-21.7-4.66-15.67 0.83c-0.65 0.03-1.2-0.49-1.2-1.14v-0.61c0-0.6 0.47-1.1 1.07-1.14l16.03-0.98 21.97 4.72c0.52 0.11 0.88 0.58 0.86 1.11l-0.04 0.85c-0.04 0.68-0.66 1.16-1.32 1.02z" fill="#2167A1"/><g fill="#82AEC0"><polygon points="53.99 22.33 50.92 22.47 50.92 26.48 53.92 26.43"/><polygon points="55.99 22.33 55.93 26.39 59.37 26.34 59.37 22.33"/></g><polygon points="77.32 24.92 77.24 29.45 81.22 30.27 81.22 25.72" fill="#2F7889"/><line x1="66.62" x2="66.62" y1="78.64" y2="83.97" fill="none" stroke="#82AEC0" stroke-miterlimit="10" stroke-width="2"/><line x1="86.38" x2="86.38" y1="80.41" y2="85.14" fill="none" stroke="#82AEC0" stroke-miterlimit="10" stroke-width="2"/><line x1="104.29" x2="104.29" y1="82" y2="87.26" fill="none" stroke="#82AEC0" stroke-miterlimit="10" stroke-width="2"/><line x1="31.7" x2="31.7" y1="81.14" y2="75.93" fill="none" stroke="#94D1E0" stroke-miterlimit="10" stroke-width="2"/><g fill="#2F7889"><polygon points="69.16 23.24 64.77 22.33 64.77 26.88 69.07 27.76"/><polygon points="71.11 23.64 71.02 28.17 75.29 29.05 75.37 24.52"/></g><path d="m5.92 80.41s-2.13-0.1-1.93 2c0 0 0.27 16.44 4.24 26.01 4.66 11.23 13.39 15.58 21.83 15.58h82.95c3.27 0 5.45-2.79 8.1-9.42 1.72-4.31 2.61-19.52 2.87-24.39 0.04-0.78-0.55-1.45-1.33-1.51-0.01 0-73.03-8.37-116.73-8.27z" fill="#2167A1"/><path d="m21.9 56.1 38.14 0.46s-0.26 4.82-4.5 4.82-29.69-0.67-29.69-0.67c-3.95-0.5-3.95-4.61-3.95-4.61z" fill="#DFECF5"/><path d="m116.78 63.28v4.9c0.87 0.09 1.57 0.16 2.02 0.19 4.22 0.36 4.89-4.42 4.89-4.42l-6.91-0.67z" fill="#94D1E0"/></svg>

<?xml version="1.0" encoding="utf-8"?>
<!-- Generator: Adobe Illustrator 25.2.3, SVG Export Plug-In . SVG Version: 6.00 Build 0)  -->
<svg version="1.1" id="Layer_5" xmlns="http://www.w3.org/2000/svg" xmlns:xlink="http://www.w3.org/1999/xlink" x="0px" y="0px"
	 viewBox="0 0 128 128" style="enable-background:new 0 0 128 128;" xml:space="preserve">
<g>
	<polygon style="fill:#94D1E0;" points="61.92,30.93 83.19,34.7 83.58,22.99 62.37,18.44 	"/>
	<path style="fill:#2F7889;" d="M112.16,50.26l0.3-12.16l-55.59-9.66L54.4,83.56l64.47,5.64l1.27-37.88L112.16,50.26z"/>
	<path style="fill:#94D1E0;" d="M112.16,49.71l0.3-12.16l-55.59-9.66L55.2,72.93l64.03,6.03l0.91-28.17L112.16,49.71z M63.12,68.87
		l-4.48-0.45l0.34-6.73l4.47,0.53L63.12,68.87z M63.74,56.2l-4.46-0.53l0.38-7.45l4.45,0.64L63.74,56.2z M64.4,42.83l-4.44-0.64
		l0.38-7.57l4.42,0.78L64.4,42.83z M70.57,69.61l-4.46-0.44l0.32-6.59l4.43,0.52L70.57,69.61z M71.15,57.07l-4.41-0.52l0.36-7.26
		l4.38,0.63L71.15,57.07z M71.75,43.89l-4.36-0.63l0.36-7.35l4.33,0.76L71.75,43.89z M78.02,70.36l-4.45-0.44l0.3-6.46l4.43,0.52
		L78.02,70.36z M78.55,57.95l-4.41-0.52l0.32-7.07l4.38,0.63L78.55,57.95z M79.1,44.95l-4.36-0.63l0.33-7.12l4.33,0.76L79.1,44.95z
		 M85.48,71.1l-4.45-0.44l0.27-6.33l4.43,0.52L85.48,71.1z M85.96,58.82l-4.41-0.52l0.29-6.88l4.38,0.63L85.96,58.82z M86.46,46.01
		l-4.36-0.63l0.29-6.9l4.33,0.76L86.46,46.01z M92.95,71.85l-4.47-0.45l0.24-6.19l4.45,0.53L92.95,71.85z M93.39,59.7l-4.44-0.52
		l0.26-6.69l4.42,0.64L93.39,59.7z M93.86,47.08l-4.41-0.64l0.26-6.68l4.39,0.77L93.86,47.08z M100.4,72.59l-4.45-0.44l0.22-6.06
		l4.43,0.52L100.4,72.59z M100.8,60.58l-4.41-0.52l0.24-6.5l4.38,0.63L100.8,60.58z M101.21,48.14l-4.36-0.63l0.24-6.45l4.33,0.76
		L101.21,48.14z M107.85,73.33l-4.45-0.44l0.2-5.92l4.43,0.52L107.85,73.33z M108.2,61.45l-4.41-0.52l0.21-6.31l4.38,0.63
		L108.2,61.45z M108.57,49.2l-4.36-0.63l0.21-6.23l4.34,0.76L108.57,49.2z M115.3,74.08l-4.45-0.44l0.17-5.79l4.43,0.52L115.3,74.08
		z M115.61,62.33l-4.41-0.52l0.18-6.12l4.38,0.63L115.61,62.33z"/>
	<polygon style="fill:#DFECF5;" points="62.37,18.44 47.69,19.35 47.7,28.22 39.3,28.3 38.26,42.6 32.88,42.64 17.65,82.82 
		54.66,83.98 57.49,28 62.25,28.77 	"/>
	<polygon style="fill:#82AEC0;" points="30.94,57.34 52.4,57.65 52.4,47.36 34.81,47.36 	"/>
	<polygon style="fill:#82AEC0;" points="22.82,81.37 52.4,83.02 49.51,61.14 31.7,60.97 	"/>
	<polygon style="fill:#2F7889;" points="49.51,61.14 31.77,60.81 29.54,65.94 41.92,82.44 52.4,83.02 	"/>
	<polygon style="fill:#2F7889;" points="34.81,47.36 52.4,53.45 52.4,47.36 	"/>
	<path style="fill:none;stroke:#82AEC0;stroke-width:2;stroke-miterlimit:10;" d="M53.72,77.55c6.66,0.54,14.65,1.23,20.43,1.8
		l47.08,4.14c0.84,0.08,1.47,0.83,1.4,1.67l-0.3,3.71"/>
	<path style="fill:none;stroke:#94D1E0;stroke-width:2;stroke-linecap:round;stroke-miterlimit:10;" d="M8.23,80.85l0-4.57
		c0-0.8,0.68-1.44,1.48-1.38c0,0,24.24,0.77,45.47,2.77"/>
	<g>
		<polygon style="fill:#82AEC0;" points="46.38,33.99 42.3,34.11 41.72,41.68 45.83,41.6 		"/>
		<polygon style="fill:#82AEC0;" points="48.98,33.92 48.43,41.64 52.91,41.55 53.4,33.79 		"/>
	</g>
	<g>
		<path style="fill:#2167A1;" d="M84.06,24.31l-21.7-4.66l-15.67,0.83c-0.65,0.03-1.2-0.49-1.2-1.14v-0.61c0-0.6,0.47-1.1,1.07-1.14
			l16.03-0.98l21.97,4.72c0.52,0.11,0.88,0.58,0.86,1.11l-0.04,0.85C85.34,23.97,84.72,24.45,84.06,24.31z"/>
	</g>
	<g>
		<polygon style="fill:#82AEC0;" points="53.99,22.33 50.92,22.47 50.92,26.48 53.92,26.43 		"/>
		<polygon style="fill:#82AEC0;" points="55.99,22.33 55.93,26.39 59.37,26.34 59.37,22.33 		"/>
	</g>
	<polygon style="fill:#2F7889;" points="77.32,24.92 77.24,29.45 81.22,30.27 81.22,25.72 	"/>
	<line style="fill:none;stroke:#82AEC0;stroke-width:2;stroke-miterlimit:10;" x1="66.62" y1="78.64" x2="66.62" y2="83.97"/>
	<line style="fill:none;stroke:#82AEC0;stroke-width:2;stroke-miterlimit:10;" x1="86.38" y1="80.41" x2="86.38" y2="85.14"/>
	<line style="fill:none;stroke:#82AEC0;stroke-width:2;stroke-miterlimit:10;" x1="104.29" y1="82" x2="104.29" y2="87.26"/>
	<line style="fill:none;stroke:#94D1E0;stroke-width:2;stroke-miterlimit:10;" x1="31.7" y1="81.14" x2="31.7" y2="75.93"/>
	<g>
		<polygon style="fill:#2F7889;" points="69.16,23.24 64.77,22.33 64.77,26.88 69.07,27.76 		"/>
		<polygon style="fill:#2F7889;" points="71.11,23.64 71.02,28.17 75.29,29.05 75.37,24.52 		"/>
	</g>
	<path style="fill:#2167A1;" d="M5.92,80.41c0,0-2.13-0.1-1.93,2c0,0,0.27,16.44,4.24,26.01C12.89,119.65,21.62,124,30.06,124
		c6.72,0,82.95,0,82.95,0c3.27,0,5.45-2.79,8.1-9.42c1.72-4.31,2.61-19.52,2.87-24.39c0.04-0.78-0.55-1.45-1.33-1.51
		C122.64,88.68,49.62,80.31,5.92,80.41z"/>
	<path style="fill:#DFECF5;" d="M21.9,56.1l38.14,0.46c0,0-0.26,4.82-4.5,4.82s-29.69-0.67-29.69-0.67
		C21.9,60.21,21.9,56.1,21.9,56.1z"/>
	<path style="fill:#94D1E0;" d="M116.78,63.28v4.9c0.87,0.09,1.57,0.16,2.02,0.19c4.22,0.36,4.89-4.42,4.89-4.42L116.78,63.28z"/>
</g>
</svg>
